Engineering Bay/Anti-Personnel Minefield.svg

<svg xmlns="http://www.w3.org/2000/svg" viewBox="0 0 126 126">
	<path fill="#fff" d="M29 93V82h68v11l-13 6-21-10-21 10Z"/>
	<path fill="#fff" d="M38 69h50v9H38zM58 60h10v5H58z"/>
	<path fill="#679552" d="M121 121H5v-20l17-7 20 10 21-10 21 10 20-10 17 7.2V121Z"/>
</svg>

<svg id="HD2-APM" xmlns="http://www.w3.org/2000/svg" xmlns:xlink="http://www.w3.org/1999/xlink" viewBox="0 0 126 126">
  <defs>
    <style>
      .cls-1, .cls-2 {
        fill: #fff;
      }

      .cls-1, .cls-3 {
        fill-rule: evenodd;
      }

      .cls-3 {
        fill: #679552;
      }
    </style>
  </defs>
  <g>
    <path class="cls-1" d="M29,93V82H97V93L84,99,63,89,42,99Z"/>
    <rect class="cls-2" x="38" y="69" width="50" height="9"/>
    <rect class="cls-2" x="58" y="60" width="10" height="5"/>
    <path id="Rectangle_3_copy" data-name="Rectangle 3 copy" class="cls-3" d="M121,121H5V100.955L22,94l20,10L63,94l21,10,20-10,17,7.192V121Z"/>
  </g>
</svg>
